X:378
T:Reel 378
M:4/4
K:Gmaj
L:1/8
dc|B>G (3GGG BGdG|B>G (3GGG g2fg|aAAA AAAAcA|caa^g aeAA|B>G (3GGG BGdG|DGGB dedB|cdef gedc|BGAF G2|BA|Ggfg dgbg|dgfg egd2|Accd edef|gabg efge|dgg2 bgag|dgfg ecdB|cBAG FGAc|BGAF G2|
